build/img/catalog/rigoletto-scheme.svg

<svg width="309" height="43" viewBox="0 0 309 43" fill="none" xmlns="http://www.w3.org/2000/svg">
<rect x="9.41455" y="17.2805" width="60.878" height="3.19512" stroke="#07BBF0"/>
<rect x="9.41455" y="20.4269" width="60.878" height="15.7805" stroke="#07BBF0"/>
<path d="M39.3293 17.3049V36.7074" stroke="#07BBF0"/>
<path d="M5.2439 4.71956L8.91463 16.7805H17.3049L8.91463 1.04883L5.2439 4.71956Z" stroke="#07BBF0"/>
<path d="M18.24 14.5137L12.0135 2.79325C13.5458 4.54049 14.856 6.43661 15.8836 8.30359C17.1168 10.5441 17.9274 12.7144 18.24 14.5137ZM4.63554 23.2977L0.640388 7.31707H3.83474L7.36585 17.9104V25.2479L4.63554 23.2977Z" stroke="#07BBF0"/>
<path d="M11.0365 38.2805V42.5H9.41455V36.1586H13.647L11.2459 37.8737L11.0365 38.0232V38.2805Z" stroke="#07BBF0"/>
<path d="M68.6708 38.2805V42.5H70.2927V36.1586H66.0603L68.4614 37.8737L68.6708 38.0232V38.2805Z" stroke="#07BBF0"/>
<path d="M306.22 38.2805V42.5H307.842V36.1586H303.609L306.01 37.8737L306.22 38.0232V38.2805Z" stroke="#07BBF0"/>
<path d="M197.195 38.2805V42.5H195.573V36.1586H199.806L197.405 37.8737L197.195 38.0232V38.2805Z" stroke="#07BBF0"/>
<rect x="195.573" y="16.2317" width="8.43902" height="19.9756" stroke="#07BBF0"/>
<rect x="203.963" y="0.5" width="47.2439" height="19.9756" stroke="#07BBF0"/>
<rect x="203.963" y="20.4269" width="95.4878" height="8.43902" stroke="#07BBF0"/>
<rect x="203.963" y="28.817" width="95.4878" height="6.34146" stroke="#07BBF0"/>
<rect x="251.159" y="0.5" width="47.2439" height="19.9756" stroke="#07BBF0"/>
<rect x="299.403" y="16.2317" width="8.43902" height="19.9756" stroke="#07BBF0"/>
<rect x="94.4146" y="17.2805" width="60.878" height="3.19512" stroke="#07BBF0"/>
<rect x="94.4146" y="20.4269" width="60.878" height="15.7805" stroke="#07BBF0"/>
<path d="M124.329 17.3049V36.7074" stroke="#07BBF0"/>
<path d="M90.2439 4.71956L93.9146 16.7805H102.305L93.9146 1.04883L90.2439 4.71956Z" stroke="#07BBF0"/>
<path d="M103.24 14.5137L97.0135 2.79325C98.5458 4.54049 99.856 6.43661 100.884 8.30359C102.117 10.5441 102.927 12.7144 103.24 14.5137ZM89.6355 23.2977L85.6404 7.31707H88.8347L92.3659 17.9104V25.2479L89.6355 23.2977Z" stroke="#07BBF0"/>
<path d="M179.345 19.9388L158.261 19.8169C161.008 18.5842 164.641 18.0024 168.149 17.9082C170.277 17.8511 172.334 17.9739 174.084 18.2297C175.845 18.4871 177.254 18.8735 178.11 19.3211L178.11 19.3212L178.118 19.3253L179.345 19.9388Z" stroke="#07BBF0"/>
<path d="M96.0365 38.2805V42.5H94.4146V36.1586H98.647L96.2459 37.8737L96.0365 38.0232V38.2805Z" stroke="#07BBF0"/>
<path d="M153.671 38.2805V42.5H155.293V36.1586H151.06L153.461 37.8737L153.671 38.0232V38.2805Z" stroke="#07BBF0"/>
<path d="M179.366 38.2805V42.5H180.988V36.1586H176.755L179.156 37.8737L179.366 38.0232V38.2805Z" stroke="#07BBF0"/>
<rect x="156.817" y="21.4756" width="24.1707" height="6.34146" stroke="#07BBF0"/>
<rect x="156.817" y="27.7683" width="24.1707" height="7.39024" stroke="#07BBF0"/>
</svg>

<svg width="309" height="43" fill="none" xmlns="http://www.w3.org/2000/svg"><path stroke="#07BBF0" d="M9.415 17.28h60.878v3.195H9.415z"/><path stroke="#07BBF0" d="M9.415 20.427h60.878v15.78H9.415zm29.915-3.122v19.402M5.244 4.72l3.67 12.06h8.39L8.915 1.05l-3.67 3.67zm12.996 9.794l-6.226-11.72a31.443 31.443 0 0 1 3.87 5.51c1.233 2.24 2.043 4.41 2.356 6.21zM4.636 23.298L.64 7.318h3.195l3.53 10.592v7.338l-2.73-1.95z"/><path d="M11.037 38.28v4.22H9.415v-6.341h4.232l-2.401 1.715-.21.15v.257zm57.633 0v4.22h1.623v-6.341H66.06l2.401 1.715.21.15v.257zm237.55 0v4.22h1.622v-6.341h-4.233l2.401 1.715.21.15v.257zm-109.025 0v4.22h-1.622v-6.341h4.233l-2.401 1.715-.21.15v.257z" stroke="#07BBF0"/><path stroke="#07BBF0" d="M195.573 16.232h8.439v19.976h-8.439z"/><path stroke="#07BBF0" d="M203.963.5h47.244v19.976h-47.244z"/><path stroke="#07BBF0" d="M203.963 20.427h95.488v8.439h-95.488z"/><path stroke="#07BBF0" d="M203.963 28.817h95.488v6.341h-95.488zM251.159.5h47.244v19.976h-47.244z"/><path stroke="#07BBF0" d="M299.403 16.232h8.439v19.976h-8.439zM94.415 17.28h60.878v3.195H94.415z"/><path stroke="#07BBF0" d="M94.415 20.427h60.878v15.78H94.415zm29.914-3.122v19.402M90.244 4.72l3.67 12.06h8.391l-8.39-15.73-3.671 3.67zm12.996 9.794l-6.227-11.72a31.468 31.468 0 0 1 3.871 5.51c1.233 2.24 2.043 4.41 2.356 6.21zm-13.605 8.784L85.64 7.318h3.195l3.53 10.592v7.338l-2.73-1.95zm89.71-3.359l-21.084-.122c2.747-1.233 6.38-1.815 9.888-1.909 2.128-.057 4.185.066 5.935.322 1.761.257 3.17.643 4.026 1.091h0l.008.004 1.227.614z"/><path d="M96.037 38.28v4.22h-1.622v-6.341h4.232l-2.401 1.715-.21.15v.257zm57.634 0v4.22h1.622v-6.341h-4.233l2.401 1.715.21.15v.257zm25.695 0v4.22h1.622v-6.341h-4.233l2.401 1.715.21.15v.257zm-22.549-16.804h24.171v6.341h-24.171z" stroke="#07BBF0"/><path stroke="#07BBF0" d="M156.817 27.768h24.171v7.39h-24.171z"/></svg>
